static/logos/krisp-wordmark-color.svg

<svg width="50" height="23" viewBox="0 0 50 23" fill="none" xmlns="http://www.w3.org/2000/svg">
<g clip-path="url(#clip0_1_2239)">
<path d="M24.3482 4.62543C25.5588 4.62543 26.5402 3.64104 26.5402 2.42673C26.5402 1.21242 25.5588 0.228027 24.3482 0.228027C23.1376 0.228027 22.1562 1.21242 22.1562 2.42673C22.1562 3.64104 23.1376 4.62543 24.3482 4.62543Z" fill="#FF7E61"/>
<path d="M5.83291 11.7116L11.4559 6.07139C11.5527 5.97429 11.4839 5.80599 11.3462 5.80599H6.80303C6.76218 5.80599 6.72348 5.82327 6.69337 5.85134L3.7657 8.78793V1.07415C3.7657 0.964108 3.65384 0.888591 3.55274 0.929586L0.338987 2.235C0.280907 2.25873 0.242188 2.31484 0.242188 2.37956V17.572C0.242188 17.7143 0.358347 17.8309 0.50032 17.8309H3.50756C3.64953 17.8309 3.7657 17.7143 3.7657 17.572V14.6353L6.91058 17.7878C6.9386 17.8158 6.97945 17.833 7.0203 17.833L11.5656 17.8309C11.7033 17.8309 11.7721 17.6626 11.6753 17.5655L5.83291 11.7116Z" fill="#3C4151"/>
<path d="M22.8441 17.8309H25.8513C25.9933 17.8309 26.1095 17.7144 26.1095 17.572V6.06709C26.1095 5.9247 25.9933 5.80817 25.8513 5.80817H22.8441C22.7021 5.80817 22.5859 5.9247 22.5859 6.06709V17.5741C22.5881 17.7166 22.7021 17.8309 22.8441 17.8309Z" fill="#3C4151"/>
<path fill-rule="evenodd" clip-rule="evenodd" d="M44.1511 5.82118C47.1067 6.02402 49.5009 8.42556 49.7074 11.3881C49.9505 14.9051 47.1798 17.831 43.7295 17.8331C42.8476 17.8331 42.0107 17.6389 41.2578 17.2958V21.1905C41.2578 21.2962 41.1955 21.3912 41.0965 21.43L37.9473 22.7095C37.8462 22.7506 37.7344 22.6771 37.7344 22.565V11.8196H37.7365C37.7365 8.35647 40.6491 5.57951 44.1511 5.82118ZM41.2578 11.8196C41.2578 13.1876 42.3635 14.2988 43.7295 14.2988C45.0933 14.2988 46.199 13.1876 46.199 11.8196C46.199 10.4516 45.0933 9.34039 43.7295 9.34039C42.3635 9.34039 41.2578 10.4516 41.2578 11.8196Z" fill="#3C4151"/>
<path d="M32.0439 8.70379C32.0547 8.70379 32.0676 8.70379 32.0783 8.70595C32.6569 8.68226 33.1775 9.05334 33.6013 9.63379C33.6701 9.72873 33.7949 9.76106 33.9024 9.71794L36.3246 8.7405C36.458 8.68658 36.5225 8.53334 36.4666 8.39959C35.8578 6.928 34.0057 5.80817 32.0418 5.80817C29.4776 5.80817 27.3953 7.44373 27.3953 9.46118C27.3953 10.5422 28.0235 11.4808 28.8861 12.0936C29.6605 12.6438 30.5855 12.9998 31.4975 13.2371C31.5126 13.2415 31.5276 13.2453 31.5427 13.249C31.5577 13.2528 31.5728 13.2566 31.5878 13.2609C32.8183 13.5349 32.9947 13.8607 32.9947 14.1823C32.9947 14.6008 32.4891 14.9396 31.8675 14.9396C31.2243 14.9806 30.6543 14.5382 30.2068 13.865C30.1402 13.7636 30.0089 13.727 29.8971 13.7723L27.5029 14.7562C27.3717 14.8101 27.3115 14.9569 27.361 15.0906C28.0472 16.9549 29.8971 17.8352 31.8675 17.8352C34.4316 17.8352 36.5139 16.2019 36.5139 14.1823C36.5139 13.742 36.4149 13.3213 36.2321 12.9308C36.0578 12.5575 35.604 11.7635 34.4295 11.2132C34.1367 11.0767 33.6176 10.8951 33.0722 10.7043C32.3674 10.4577 31.6189 10.1958 31.2587 9.99629C31.0393 9.87544 30.9145 9.67476 30.9145 9.46118C30.9145 9.0426 31.4222 8.70379 32.0439 8.70379Z" fill="#3C4151"/>
<path d="M21.3467 6.0218C21.3876 5.92038 21.3123 5.80817 21.2026 5.80817H18.9332C15.6313 5.80817 12.9531 8.49453 12.9531 11.8066V17.572C12.9531 17.7144 13.0693 17.8309 13.2112 17.8309H16.2185C16.3605 17.8309 16.4744 17.7166 16.4744 17.5741V11.8066C16.4744 10.4429 17.5758 9.33817 18.9353 9.33817H19.8861C19.9485 9.33817 20.0044 9.30152 20.0281 9.24322L21.3467 6.0218Z" fill="#3C4151"/>
</g>
<defs>
<clipPath id="clip0_1_2239">
<rect width="50" height="22.7273" fill="white"/>
</clipPath>
</defs>
</svg>

<svg xmlns="http://www.w3.org/2000/svg" width="139.13" height="64" fill="none" viewBox="0 0 50 23"><g clip-path="url(#a)"><path fill="#FF7E61" d="M24.348 4.625c1.21 0 2.192-.984 2.192-2.198A2.195 2.195 0 0 0 24.348.228c-1.21 0-2.192.984-2.192 2.199 0 1.214.982 2.198 2.192 2.198Z"/><path fill="#3C4151" d="m5.833 11.712 5.623-5.64a.156.156 0 0 0-.11-.266H6.803c-.04 0-.08.017-.11.045L3.766 8.788V1.074A.156.156 0 0 0 3.553.93L.339 2.235a.155.155 0 0 0-.097.145v15.192a.26.26 0 0 0 .258.259h3.008a.26.26 0 0 0 .258-.259v-2.937l3.145 3.153a.158.158 0 0 0 .11.045l4.545-.002a.156.156 0 0 0 .11-.265l-5.843-5.854ZM22.844 17.83h3.007a.26.26 0 0 0 .259-.258V6.067a.26.26 0 0 0-.259-.259h-3.007a.26.26 0 0 0-.258.26v11.506a.259.259 0 0 0 .258.257Z"/><path fill="#3C4151" fill-rule="evenodd" d="M44.151 5.821c2.956.203 5.35 2.605 5.556 5.567.243 3.517-2.527 6.443-5.977 6.445a5.947 5.947 0 0 1-2.472-.537v3.895c0 .105-.063.2-.162.239l-3.149 1.28a.155.155 0 0 1-.213-.145V11.82h.002c0-3.464 2.913-6.24 6.415-5.999Zm-2.893 5.999a2.476 2.476 0 0 0 2.471 2.479 2.475 2.475 0 0 0 2.47-2.48 2.475 2.475 0 0 0-2.47-2.479 2.476 2.476 0 0 0-2.471 2.48Z" clip-rule="evenodd"/><path fill="#3C4151" d="M32.044 8.704c.01 0 .024 0 .034.002.579-.024 1.1.347 1.523.928a.254.254 0 0 0 .301.084l2.423-.977a.26.26 0 0 0 .142-.341c-.61-1.472-2.461-2.592-4.425-2.592-2.564 0-4.647 1.636-4.647 3.653 0 1.081.628 2.02 1.491 2.633.774.55 1.7.906 2.611 1.143l.046.012.045.012c1.23.274 1.407.6 1.407.921 0 .419-.506.758-1.127.758-.644.04-1.214-.402-1.661-1.075a.256.256 0 0 0-.31-.093l-2.394.984a.26.26 0 0 0-.142.335c.686 1.864 2.536 2.744 4.506 2.744 2.565 0 4.647-1.633 4.647-3.653 0-.44-.1-.86-.282-1.251-.174-.373-.628-1.167-1.803-1.718-.292-.136-.811-.318-1.357-.509-.705-.246-1.453-.508-1.813-.708-.22-.12-.345-.321-.345-.535 0-.418.508-.757 1.13-.757ZM21.347 6.022a.156.156 0 0 0-.144-.214h-2.27c-3.302 0-5.98 2.687-5.98 5.999v5.765a.26.26 0 0 0 .258.259h3.007a.255.255 0 0 0 .256-.257v-5.767a2.464 2.464 0 0 1 2.461-2.469h.951a.152.152 0 0 0 .142-.095l1.319-3.221Z"/></g><defs><clipPath id="a"><path fill="#fff" d="M0 0h50v22.727H0z"/></clipPath></defs></svg>
